X:9
T:Malene's Welcome Beck
R:reel
C:Paul S. Cranford
O:Cape Breton Island
S:http://www.cranfordpub.com
D:currently unrecorded
B:currently unpublished in book form
Z:psc, (re-formatted,updated 9/17/04)
N:
H:                                                        copyrights Cranford Publications, SOCAN
L:1/8
Q:333
M:C|
K:A
f|eAcA dAcA|BE E/E/E dE'BG|ABcA Bbba|gbfd ecdf|
eAcA dAcA|BE E/E/E dEBd|caec dBcA|EeBd cAA:|
|:B,|A,2 AF EFEC|B,BBd cABd|caec dBcA|1BGAF EFEC|
A,2 AF EFEC|B,BBd cABd|caec dBcA|EeBd cAA:|
[2BGAF EdcB|A2 Ee dBcA|B2Ee deBd|caec Bbba|gefg a/a/a a|]
